X: 73
T:Mason's Apron
R:Reel
M:4/4
L:1/8
Q:1/2=112
K:A
ed|c2A2 ABAF|EFAB c2Bc|d2B2 BcBA|Bcde f2ed|
c2A2 ABAF|EFAB c2Bc|Bcde fgaf|edcB A2:|
|:ed|cAeA fAeA|cAeA fedc|dBfB gBfB|dBfa gfed|
cAeA fAeA|cAea fedc|Bcde fgaf|edcB A2:|
